images/features-house.svg

<svg width="75" height="72" viewBox="0 0 75 72" fill="none" xmlns="http://www.w3.org/2000/svg">
<path d="M29.7 65H45.7V41.2H29.7C29.7 41.2 29.7 65 29.7 65ZM32.5999 44.0999H42.7V62.0999H32.5999V44.0999Z" fill="#81B3D2"/>
<path d="M72.8 39.3L74.9 37.2L65 27.3V0H51.0999V13.6L37.5 0L0.199951 37.2L2.29995 39.3L10.1 31.5V69.1H6.09995V72H70V69.1H64.9V31.5L72.8 39.3ZM62 69.1H13V28.5L37.5 4.1L62 28.5V69.1ZM62 24.4L54.0999 16.5V2.9H62V24.4Z" fill="#81B3D2"/>
<path d="M29.8999 27.1C29.8999 31.4 33.3999 34.8 37.5999 34.8C41.8999 34.8 45.3999 31.3 45.3999 27.1C45.3999 22.8 41.8999 19.4 37.5999 19.4C33.3999 19.4 29.8999 22.8 29.8999 27.1ZM37.6999 22.1C40.3999 22.1 42.6999 24.3 42.6999 27C42.6999 29.7 40.4999 31.9 37.6999 31.9C34.9999 31.9 32.6999 29.7 32.6999 27C32.6999 24.3 34.8999 22.1 37.6999 22.1Z" fill="#81B3D2"/>
<path d="M20.1 41.2H17.1V45.0999H20.1V41.2Z" fill="#81B3D2"/>
<path d="M26 41.2H23V45.0999H26V41.2Z" fill="#81B3D2"/>
<path d="M20.1 47.2H17.1V51.0999H20.1V47.2Z" fill="#81B3D2"/>
<path d="M26 47.2H23V51.0999H26V47.2Z" fill="#81B3D2"/>
<path d="M52 41.2H49V45.0999H52V41.2Z" fill="#81B3D2"/>
<path d="M57.8999 41.2H54.8999V45.0999H57.8999V41.2Z" fill="#81B3D2"/>
<path d="M52 47.2H49V51.0999H52V47.2Z" fill="#81B3D2"/>
<path d="M57.8999 47.2H54.8999V51.0999H57.8999V47.2Z" fill="#81B3D2"/>
</svg>

<svg width="75" height="72" fill="none" xmlns="http://www.w3.org/2000/svg"><path d="M29.7 65h16V41.2h-16V65Zm2.9-20.9h10.1v18H32.6v-18Z" fill="#81B3D2"/><path d="m72.8 39.3 2.1-2.1-9.9-9.9V0H51.1v13.6L37.5 0 .2 37.2l2.1 2.1 7.8-7.8v37.6h-4V72H70v-2.9h-5.1V31.5l7.9 7.8ZM62 69.1H13V28.5L37.5 4.1 62 28.5v40.6Zm0-44.7-7.9-7.9V2.9H62v21.5Z" fill="#81B3D2"/><path d="M29.9 27.1c0 4.3 3.5 7.7 7.7 7.7 4.3 0 7.8-3.5 7.8-7.7 0-4.3-3.5-7.7-7.8-7.7a7.7 7.7 0 0 0-7.7 7.7Zm7.8-5a5 5 0 0 1 5 4.9c0 2.7-2.2 4.9-5 4.9a5 5 0 0 1-5-4.9c0-2.7 2.2-4.9 5-4.9ZM20.1 41.2h-3v3.9h3v-3.9ZM26 41.2h-3v3.9h3v-3.9ZM20.1 47.2h-3v3.9h3v-3.9ZM26 47.2h-3v3.9h3v-3.9ZM52 41.2h-3v3.9h3v-3.9ZM57.9 41.2h-3v3.9h3v-3.9ZM52 47.2h-3v3.9h3v-3.9ZM57.9 47.2h-3v3.9h3v-3.9Z" fill="#81B3D2"/></svg>
